X:1
T:False Lamkin
M:3/4
L:1/8
K:C
 GG| c2 c2c-A| G2 G2 G3/2 G/2| c3/2 c/2 c3 d| e4c-d|e-f g2f-e|d-c A2 AA|\
 G2 c2 d2| c4||
